!!!COM: Bohuslav (Jan) Martinů
!!!OTL: [T495_Mau-22/1/1-9]
**kern	**dynam	**kern	**dynam	**kern	**dynam	**kern	**dynam
*grp:A	*grp:A	*grp:A	*grp:A	*grp:A	*grp:A	*grp:B	*grp:B
*part4	*part4	*part3	*part3	*part2	*part2	*part1	*part1
*staff4	*	*staff3	*	*staff2	*	*staff1	*
*I"Violoncello	*	*I"Viola	*	*I"Violin II	*	*I"Violin I	*
*I'Vc.	*	*I'Vla.	*	*I'Vln. II	*	*I'Vln. I	*
*clefF4	*	*clefC3	*	*clefG2	*	*clefG2	*
*k[]	*	*k[]	*	*k[]	*	*k[]	*
*C:	*	*C:	*	*C:	*	*C:	*
*M4/4	*	*M4/4	*	*M4/4	*	*M4/4	*
=1	=1	=1	=1	=1	=1	=1	=1
!LO:TX:a:t=pizz.	!	!	!	!	!	!LO:TX:t=Allegro [quarter]=120	!
4ryy	4ryy	4ryy	.	1ryy	4ryy	1r	.
!	!	!LO:TX:a:t=col legno poco marcato	!	!	!	!	!
4ryy	.	8ryy	4ryy	.	.	.	.
.	.	8ryy	.	.	.	.	.
4ryy	.	8r'yy	.	.	.	.	.
.	.	8ryy	.	.	.	.	.
4ryy	.	8r'yy	.	.	.	.	.
.	.	8ryy	.	.	.	.	.
=2	=2	=2	=2	=2	=2	=2	=2
!	!	!	!	!LO:TX:a:t=con sord quasi	!	!	!
4ryy	.	4ryy	.	2ryy	.	1r	.
4ryy	.	8ryy	.	.	.	.	.
.	.	8ryy	.	.	.	.	.
*	*	*	*	*tremolo	*	*	*
4ryy	.	8r'yy	.	64ryy	4ryy	.	.
.	.	.	.	64ryy	.	.	.
.	.	.	.	64ryy	.	.	.
.	.	.	.	64ryy	.	.	.
.	.	.	.	64ryy	.	.	.
.	.	.	.	64ryy	.	.	.
.	.	.	.	64ryy	.	.	.
.	.	.	.	64ryy	.	.	.
.	.	8ryy	.	64ryy	.	.	.
.	.	.	.	64ryy	.	.	.
.	.	.	.	64ryy	.	.	.
.	.	.	.	64ryy	.	.	.
.	.	.	.	64ryy	.	.	.
.	.	.	.	64ryy	.	.	.
.	.	.	.	64ryy	.	.	.
.	.	.	.	64ryy	.	.	.
4ryy	.	8r'yy	.	64ryy	.	.	.
.	.	.	.	64ryy	.	.	.
.	.	.	.	64ryy	.	.	.
.	.	.	.	64ryy	.	.	.
.	.	.	.	64ryy	.	.	.
.	.	.	.	64ryy	.	.	.
.	.	.	.	64ryy	.	.	.
.	.	.	.	64ryy	.	.	.
.	.	8ryy	.	64ryy	.	.	.
.	.	.	.	64ryy	.	.	.
.	.	.	.	64ryy	.	.	.
.	.	.	.	64ryy	.	.	.
.	.	.	.	64ryy	.	.	.
.	.	.	.	64ryy	.	.	.
.	.	.	.	64ryy	.	.	.
.	.	.	.	64ryy	.	.	.
=3	=3	=3	=3	=3	=3	=3	=3
4ryy	.	4ryy	.	64ryy	.	4r	.
.	.	.	.	64ryy	.	.	.
.	.	.	.	64ryy	.	.	.
.	.	.	.	64ryy	.	.	.
.	.	.	.	64ryy	.	.	.
.	.	.	.	64ryy	.	.	.
.	.	.	.	64ryy	.	.	.
.	.	.	.	64ryy	.	.	.
.	.	.	.	64ryy	.	.	.
.	.	.	.	64ryy	.	.	.
.	.	.	.	64ryy	.	.	.
.	.	.	.	64ryy	.	.	.
.	.	.	.	64ryy	.	.	.
.	.	.	.	64ryy	.	.	.
.	.	.	.	64ryy	.	.	.
.	.	.	.	64ryy	.	.	.
4ryy	.	8ryy	.	64ryy	.	8r	.
.	.	.	.	64ryy	.	.	.
.	.	.	.	64ryy	.	.	.
.	.	.	.	64ryy	.	.	.
.	.	.	.	64ryy	.	.	.
.	.	.	.	64ryy	.	.	.
.	.	.	.	64ryy	.	.	.
.	.	.	.	64ryy	.	.	.
.	.	8ryy	.	64ryy	.	16c'LL	pp
.	.	.	.	64ryy	.	.	.
.	.	.	.	64ryy	.	.	.
.	.	.	.	64ryy	.	.	.
.	.	.	.	64ryy	.	16G'JJ	.
.	.	.	.	64ryy	.	.	.
.	.	.	.	64ryy	.	.	.
.	.	.	.	64ryy	.	.	.
4ryy	.	8r'yy	.	64ryy	.	16c'LL	.
.	.	.	.	64ryy	.	.	.
.	.	.	.	64ryy	.	.	.
.	.	.	.	64ryy	.	.	.
.	.	.	.	64ryy	.	16c'	.
.	.	.	.	64ryy	.	.	.
.	.	.	.	64ryy	.	.	.
.	.	.	.	64ryy	.	.	.
.	.	8ryy	.	64ryy	.	16c'	.
.	.	.	.	64ryy	.	.	.
.	.	.	.	64ryy	.	.	.
.	.	.	.	64ryy	.	.	.
.	.	.	.	64ryy	.	16G'JJ	.
.	.	.	.	64ryy	.	.	.
.	.	.	.	64ryy	.	.	.
.	.	.	.	64ryy	.	.	.
4ryy	.	8r'yy	.	64ryy	.	8c'L	.
.	.	.	.	64ryy	.	.	.
.	.	.	.	64ryy	.	.	.
.	.	.	.	64ryy	.	.	.
.	.	.	.	64ryy	.	.	.
.	.	.	.	64ryy	.	.	.
.	.	.	.	64ryy	.	.	.
.	.	.	.	64ryy	.	.	.
.	.	8ryy	.	64ryy	.	16c'L	.
.	.	.	.	64ryy	.	.	.
.	.	.	.	64ryy	.	.	.
.	.	.	.	64ryy	.	.	.
.	.	.	.	64ryy	.	16B-X'JJ	.
.	.	.	.	64ryy	.	.	.
.	.	.	.	64ryy	.	.	.
.	.	.	.	64ryy	.	.	.
!!linebreak:original
=4	=4	=4	=4	=4	=4	=4	=4
4ryy	4ryy	4ryy	.	64ryy	.	16A'LL	.
.	.	.	.	64ryy	.	.	.
.	.	.	.	64ryy	.	.	.
.	.	.	.	64ryy	.	.	.
.	.	.	.	64ryy	.	16G'J	.
.	.	.	.	64ryy	.	.	.
.	.	.	.	64ryy	.	.	.
.	.	.	.	64ryy	.	.	.
.	.	.	.	64ryy	.	8c'J	.
.	.	.	.	64ryy	.	.	.
.	.	.	.	64ryy	.	.	.
.	.	.	.	64ryy	.	.	.
.	.	.	.	64ryy	.	.	.
.	.	.	.	64ryy	.	.	.
.	.	.	.	64ryy	.	.	.
.	.	.	.	64ryy	.	.	.
4ryy	.	8ryy	.	64ryy	.	16dLL	.
.	.	.	.	64ryy	.	.	.
.	.	.	.	64ryy	.	.	.
.	.	.	.	64ryy	.	.	.
.	.	.	.	64ryy	.	16d	.
.	.	.	.	64ryy	.	.	.
.	.	.	.	64ryy	.	.	.
.	.	.	.	64ryy	.	.	.
.	.	8ryy	.	64ryy	.	16d	.
.	.	.	.	64ryy	.	.	.
.	.	.	.	64ryy	.	.	.
.	.	.	.	64ryy	.	.	.
.	.	.	.	64ryy	.	16BnJJ	<
.	.	.	.	64ryy	.	.	.
.	.	.	.	64ryy	.	.	.
.	.	.	.	64ryy	.	.	.
4ryy	.	8r'yy	.	64ryy	.	16e-XLL	.
.	.	.	.	64ryy	.	.	.
.	.	.	.	64ryy	.	.	.
.	.	.	.	64ryy	.	.	.
.	.	.	.	64ryy	.	16cJ	.
.	.	.	.	64ryy	.	.	.
.	.	.	.	64ryy	.	.	.
.	.	.	.	64ryy	.	.	.
.	.	8ryy	.	64ryy	.	8fJ	[
.	.	.	.	64ryy	.	.	.
.	.	.	.	64ryy	.	.	.
.	.	.	.	64ryy	.	.	.
.	.	.	.	64ryy	.	.	.
.	.	.	.	64ryy	.	.	.
.	.	.	.	64ryy	.	.	.
.	.	.	.	64ryy	.	.	.
4ryy	.	8r'yy	.	64ryy	.	16d'KL	.
.	.	.	.	64ryy	.	.	.
.	.	.	.	64ryy	.	.	.
.	.	.	.	64ryy	.	.	.
.	.	.	.	64ryy	.	8f~	.
.	.	.	.	64ryy	.	.	.
.	.	.	.	64ryy	.	.	.
.	.	.	.	64ryy	.	.	.
.	.	8ryy	.	64ryy	.	.	.
.	.	.	.	64ryy	.	.	.
.	.	.	.	64ryy	.	.	.
.	.	.	.	64ryy	.	.	.
.	.	.	.	64ryy	.	16c#X'Jk	.
.	.	.	.	64ryy	.	.	.
.	.	.	.	64ryy	.	.	.
.	.	.	.	64ryy	.	.	.
!!LO:REH:t=5
=5	=5	=5	=5	=5	=5	=5	=5
4ryy	.	4ryy	.	64ryy	.	8e'L	.
.	.	.	.	64ryy	.	.	.
.	.	.	.	64ryy	.	.	.
.	.	.	.	64ryy	.	.	.
.	.	.	.	64ryy	.	.	.
.	.	.	.	64ryy	.	.	.
.	.	.	.	64ryy	.	.	.
.	.	.	.	64ryy	.	.	.
.	.	.	.	64ryy	.	16dL	<
.	.	.	.	64ryy	.	.	.
.	.	.	.	64ryy	.	.	.
.	.	.	.	64ryy	.	.	.
.	.	.	.	64ryy	.	16fJJ	.
.	.	.	.	64ryy	.	.	.
.	.	.	.	64ryy	.	.	.
.	.	.	.	64ryy	.	.	.
4ryy	.	8ryy	.	64ryy	.	16c#XLL	.
.	.	.	.	64ryy	.	.	.
.	.	.	.	64ryy	.	.	.
.	.	.	.	64ryy	.	.	.
.	.	.	.	64ryy	.	[16e^J	p [
.	.	.	.	64ryy	.	.	.
.	.	.	.	64ryy	.	.	.
.	.	.	.	64ryy	.	.	.
.	.	8ryy	.	64ryy	.	8eJ_	.
.	.	.	.	64ryy	.	.	.
.	.	.	.	64ryy	.	.	.
.	.	.	.	64ryy	.	.	.
.	.	.	.	64ryy	.	.	.
.	.	.	.	64ryy	.	.	.
.	.	.	.	64ryy	.	.	.
.	.	.	.	64ryy	.	.	.
4ryy	4ryy	8r'yy	.	64ryy	4ryy	8eL]	.
.	.	.	.	64ryy	.	.	.
.	.	.	.	64ryy	.	.	.
.	.	.	.	64ryy	.	.	.
.	.	.	.	64ryy	.	.	.
.	.	.	.	64ryy	.	.	.
.	.	.	.	64ryy	.	.	.
.	.	.	.	64ryy	.	.	.
.	.	8ryy	4ryy	64ryy	.	16aL	.
.	.	.	.	64ryy	.	.	.
.	.	.	.	64ryy	.	.	.
.	.	.	.	64ryy	.	.	.
.	.	.	.	64ryy	.	16eJJ	.
.	.	.	.	64ryy	.	.	.
.	.	.	.	64ryy	.	.	.
.	.	.	.	64ryy	.	.	.
4ryy	.	8r'yy	.	64ryy	.	16gLL	.
.	.	.	.	64ryy	.	.	.
.	.	.	.	64ryy	.	.	.
.	.	.	.	64ryy	.	.	.
.	.	.	.	64ryy	.	16g	.
.	.	.	.	64ryy	.	.	.
.	.	.	.	64ryy	.	.	.
.	.	.	.	64ryy	.	.	.
.	.	8ryy	.	64ryy	.	16g	.
.	.	.	.	64ryy	.	.	.
.	.	.	.	64ryy	.	.	.
.	.	.	.	64ryy	.	.	.
.	.	.	.	64ryy	.	16eJJ	.
.	.	.	.	64ryy	.	.	.
.	.	.	.	64ryy	.	.	.
.	.	.	.	64ryy	.	.	.
=6	=6	=6	=6	=6	=6	=6	=6
4ryy	.	4ryy	.	64ryy	.	16aLL	.
.	.	.	.	64ryy	.	.	.
.	.	.	.	64ryy	.	.	.
.	.	.	.	64ryy	.	.	.
.	.	.	.	64ryy	.	16g	.
.	.	.	.	64ryy	.	.	.
.	.	.	.	64ryy	.	.	.
.	.	.	.	64ryy	.	.	.
.	.	.	.	64ryy	.	16bn	.
.	.	.	.	64ryy	.	.	.
.	.	.	.	64ryy	.	.	.
.	.	.	.	64ryy	.	.	.
.	.	.	.	64ryy	.	16gJJ	<
.	.	.	.	64ryy	.	.	.
.	.	.	.	64ryy	.	.	.
.	.	.	.	64ryy	.	.	.
!	!	!	!	!	!LO:DY:t=poco %s	!	!
4ryy	4ryy	8ryy	4ryy	64ryy	4ryy	16bnLL	.
.	.	.	.	64ryy	.	.	.
.	.	.	.	64ryy	.	.	.
.	.	.	.	64ryy	.	.	.
.	.	.	.	64ryy	.	16a	.
.	.	.	.	64ryy	.	.	.
.	.	.	.	64ryy	.	.	.
.	.	.	.	64ryy	.	.	.
.	.	8ryy	.	64ryy	.	16ccn	.
.	.	.	.	64ryy	.	.	.
.	.	.	.	64ryy	.	.	.
.	.	.	.	64ryy	.	.	.
.	.	.	.	64ryy	.	16aJJ	.
.	.	.	.	64ryy	.	.	.
.	.	.	.	64ryy	.	.	.
.	.	.	.	64ryy	.	.	.
!	!	!	!	!	!	!	!LO:DY:t=poco %s
4ryy	4ryy	8r'yy	.	64ryy	.	8r	f [
.	.	.	.	64ryy	.	.	.
.	.	.	.	64ryy	.	.	.
.	.	.	.	64ryy	.	.	.
.	.	.	.	64ryy	.	.	.
.	.	.	.	64ryy	.	.	.
.	.	.	.	64ryy	.	.	.
.	.	.	.	64ryy	.	.	.
.	.	8ryy	4ryy	64ryy	.	16aLL	.
.	.	.	.	64ryy	.	.	.
.	.	.	.	64ryy	.	.	.
.	.	.	.	64ryy	.	.	.
.	.	.	.	64ryy	.	16ccJJ	.
.	.	.	.	64ryy	.	.	.
.	.	.	.	64ryy	.	.	.
.	.	.	.	64ryy	.	.	.
4ryy	.	8r'yy	.	64ryy	.	16aaLL	.
.	.	.	.	64ryy	.	.	.
.	.	.	.	64ryy	.	.	.
.	.	.	.	64ryy	.	.	.
.	.	.	.	64ryy	.	16b	.
.	.	.	.	64ryy	.	.	.
.	.	.	.	64ryy	.	.	.
.	.	.	.	64ryy	.	.	.
.	.	8ryy	.	64ryy	.	16dd	.
.	.	.	.	64ryy	.	.	.
.	.	.	.	64ryy	.	.	.
.	.	.	.	64ryy	.	.	.
.	.	.	.	64ryy	.	16aaJJ	.
.	.	.	.	64ryy	.	.	.
.	.	.	.	64ryy	.	.	.
.	.	.	.	64ryy	.	.	.
!!linebreak:original
=7	=7	=7	=7	=7	=7	=7	=7
*	*	*	*	*Xtremolo	*	*	*
4ryy	.	4ryy	.	4ryy	.	16cc#XLL	<
.	.	.	.	.	.	16eeJ	.
.	.	.	.	.	.	8aa'J	[
4ryy	4ryy	8ryy	.	4ryy	4ryy	16bb^LL	.
.	.	.	.	.	.	16bb'	.
.	.	8ryy	4ryy	.	.	16bb'	.
.	.	.	.	.	.	16a'JJ	>
4ryy	.	8r'yy	.	4ryy	.	8bn'L	.
.	.	8ryy	4ryy	.	.	16cc#X'^L	.
.	.	.	.	.	.	16cc#'JJ	.
4ryy	4ryy	8r'yy	.	4ryy	4ryy	16cc#'LL	.
.	.	.	.	.	.	16B-X'J	p ]
.	.	8ryy	.	.	.	8cn'J	.
=8	=8	=8	=8	=8	=8	=8	=8
4ryy	4ryy	4ryy	.	4ryy	4ryy	16d-XLL	.
.	.	.	.	.	.	16d-	>
.	.	.	.	.	.	16d-	.
.	.	.	.	.	.	16A-XJJ	.
4ryy	.	8ryy	4ryy	4ryy	.	16d-LL	.
.	.	.	.	.	.	16A-	.
.	.	8ryy	.	.	.	16c	]
.	.	.	.	.	.	16GJJ	.
4ryy	4ryy	8r'yy	.	4ryy	4ryy	4B-X~^	pp
.	.	8ryy	.	.	.	.	.
.	.	.	.	.	.	(8qd-X/	.
4ryy	4ryy	8r'yy	.	4ryy	4ryy	8c'L)	.
.	.	8ryy	.	.	.	[8B-^J	.
=9	=9	=9	=9	=9	=9	=9	=9
*	*	*	*	*tremolo	*	*	*
4ryy	4ryy	4ryy	.	64ryy	4ryy	8B-L]	.
.	.	.	.	64ryy	.	.	.
.	.	.	.	64ryy	.	.	.
.	.	.	.	64ryy	.	.	.
.	.	.	.	64ryy	.	.	.
.	.	.	.	64ryy	.	.	.
.	.	.	.	64ryy	.	.	.
.	.	.	.	.	.	(8qdn/	.
.	.	.	.	64ryy	.	.	.
.	.	.	.	64ryy	.	8cJ	.
.	.	.	.	64ryy	.	.	.
.	.	.	.	.	.	.	.
.	.	.	.	64ryy	.	.	.
.	.	.	.	64ryy	.	.	.
.	.	.	.	64ryy	.	.	.
.	.	.	.	64ryy	.	.	.
.	.	.	.	64ryy	.	.	.
.	.	.	.	64ryy	.	.	.
4ryy	.	8ryy	4ryy	64ryy	.	8BL	<
.	.	.	.	64ryy	.	.	.
.	.	.	.	64ryy	.	.	.
.	.	.	.	64ryy	.	.	.
.	.	.	.	64ryy	.	.	.
.	.	.	.	64ryy	.	.	.
.	.	.	.	64ryy	.	.	.
.	.	.	.	64ryy	.	.	.
.	.	8ryy	.	64ryy	.	16eL	.
.	.	.	.	64ryy	.	.	.
.	.	.	.	64ryy	.	.	.
.	.	.	.	64ryy	.	.	.
.	.	.	.	64ryy	.	16dnJJ	.
.	.	.	.	64ryy	.	.	.
.	.	.	.	64ryy	.	.	.
.	.	.	.	64ryy	.	.	.
4ryy	.	8r'yy	.	64ryy	.	4B)	[ >
.	.	.	.	64ryy	.	.	.
.	.	.	.	64ryy	.	.	.
.	.	.	.	64ryy	.	.	.
.	.	.	.	64ryy	.	.	.
.	.	.	.	64ryy	.	.	.
.	.	.	.	64ryy	.	.	.
.	.	.	.	64ryy	.	.	.
.	.	8ryy	.	64ryy	.	.	.
.	.	.	.	64ryy	.	.	.
.	.	.	.	64ryy	.	.	.
.	.	.	.	64ryy	.	.	.
.	.	.	.	64ryy	.	.	.
.	.	.	.	64ryy	.	.	.
.	.	.	.	64ryy	.	.	.
.	.	.	.	64ryy	.	.	.
4ryy	.	8r'yy	.	64ryy	.	(8d^L	]
.	.	.	.	64ryy	.	.	.
.	.	.	.	64ryy	.	.	.
.	.	.	.	64ryy	.	.	.
.	.	.	.	64ryy	.	.	.
.	.	.	.	64ryy	.	.	.
.	.	.	.	64ryy	.	.	.
.	.	.	.	64ryy	.	.	.
.	.	8ryy	.	64ryy	.	8BJ	>
.	.	.	.	64ryy	.	.	.
.	.	.	.	64ryy	.	.	.
.	.	.	.	64ryy	.	.	.
.	.	.	.	64ryy	.	.	.
.	.	.	.	64ryy	.	.	.
.	.	.	.	64ryy	.	.	.
.	.	.	.	64ryy	.	.	]
*	*	*	*	*Xtremolo	*	*	*
=||	=||	=||	=||	=||	=||	=||	=||
*-	*-	*-	*-	*-	*-	*-	*-
!!!system-decoration: [(s1,s2,s3,s4)]
!!!RDF**kern: > = above
!!!RDF**kern: < = below
!!!EED: Daniel Wright
!!!EEV: 2022/02/11
